X:39
T:Serras
S:http://www.dafo.dk/spillemand/
N:n4
B:Rasmus Storms nodebog - 1760
O:Danmark
Z:<anamnese@laposte.net>
M:3/4
L:1/8
Q:1/4=125
K:C
fe d2^c2 | de f2 e2 | gfge | fe d2^c2 | de f2 e2 | fa A2 ^c2 | d6 :||:
Ad | e2 AeAe | f2 gfed | f6 :||: a2 eaea | f2 ef d2 | g2 dg fa | 
g2 egeg | f2 gfed | ^c2 Bc A | d2 AdAd | e2 Aeae | fa A2 ^c | d6 :||:
fg a2 (gf) | ef g2 (fe) | fgagaf | ef
